!!!!SEGMENT: 074-1-Sam-009.krn
!!!COM: Fryderyk Chopin
!!!OTL: Eine Melodie
!!!OPS: op. 74
!!!PTL: 16 | Polnische Lieder | von Witwicki, Zaleski Mickiewicz etc. | für eine Singstimme | mit Begleitung des Pianoforte
!!!PPR: Schlesinger
!!!PPP: Berlin
!!!AGN: Song
!!!NIFC-rismID: BRAK
!!!NIFC-shelfmark: PL-Wbfc 6138/n
!!!OMD: Andante. M. M. [quarter] = 92.
!!!system-decoration: (s1){(s2,s3)}
**kern	**kern	**dynam	**kern	**text	**dynam
*part2	*part2	*part2	*part1	*	*part1
*staff3	*staff2	*	*staff1	*	*
*	*I"PIANO.	*	*I"SINGSTIMME.	*	*
*clefF4	*clefG2	*	*clefG2	*	*
*k[f#]	*k[f#]	*	*k[f#]	*	*
*G:	*G:	*	*G:	*	*
*M4/4	*M4/4	*	*M4/4	*	*
*met(c)	*met(c)	*	*met(c)	*	*
=1	=1	=1	=1	=1	=1
*	*^	*	*	*	*
!	!	!	!	!LO:TX:t=P:"Andante" nad "M. M....":problem	!	!
1D 1GG	(>8BL	4.B	p	1rdd	.	.
.	8d	.	.	.	.	.
.	8g	.	.	.	.	.
.	8f#J	8A	.	.	.	.
.	8aL 8c	4rEyy	.	.	.	.
.	8g 8B	.	.	.	.	.
.	8cc 8e	4rFyy	.	.	.	.
.	8bJ 8d	.	.	.	.	.
=2	=2	=2	=2	=2	=2	=2
!	!	!LO:TX:b:t=P:note position:problem	!	!	!	!
2D 2DD	2a 2A<)	2.f#X	.	1rdd	.	.
2r	2rdd	.	.	.	.	.
.	.	4fn	.	.	.	.
=3	=3	=3	=3	=3	=3	=3
!LO:TX:b:t=P:note position:problem	!	!	!	!	!	!
1C 1FFn	(>8A<L	4.A<\	.	1rdd	.	.
.	8c	.	.	.	.	.
.	8fn	.	.	.	.	.
.	8eJ 8G<	8G<\	.	.	.	.
.	8gL 8B-X	4rDyy	.	.	.	.
.	8f 8A	.	.	.	.	.
.	8b-X 8d	4rEyy	.	.	.	.
.	8aJ 8c	.	.	.	.	.
*	*v	*v	*	*	*	*
=4	=4	=4	=4	=4	=4
1C 1CC	2.g 2.e 2.G<)	.	1rdd	.	.
.	4f#X 4e 4A<	.	.	.	.
=5	=5	=5	=5	=5	=5
*ped	*	*	*	*	*
!	!	!	!	!	!LO:HP:a
4BB 4BBB	4f# 4d#X 4A<	.	2cc	Sie	>
4r	4r	.	.	.	.
!	!	!	!LO:TX:t=P:w źródle brak myślnika rozdzielającego sylaby:problem	!	!
2r	2r	.	4b	tra-	.
*Xped	*	*	*	*	*
.	.	.	4a#X	-gen	.
.	.	.	.	.	]
=6	=6	=6	=6	=6	=6
1rF	1rdd	.	2.b	lang	.
.	.	.	4f#	ihr	.
!!LO:LB:g=original
=7	=7	=7	=7	=7	=7
!	!	!	!	!	!LO:HP:a
1BB 1BBB	1g 1e	.	4g	Kreuz	<
.	.	.	4a	in	.
.	.	.	4b	Gram	.
.	.	.	4cc#X	und	[
=8	=8	=8	=8	=8	=8
!	!	!	!LO:TX:t=P:w źródle w miejscu myślinków rozdzielających sylaby występują podkreślniki:problem	!	!
2BB 2BBB	2f# 2A<<	.	2.dd#Xt	Pla-	.
2r	2r	.	.	.	.
!	!	!	!	!	!LO:HP:a
.	.	.	8cc#XL	-ge,_	<
.	.	.	8dd#J	.	.
.	.	.	.	.	[
=9	=9	=9	=9	=9	=9
2C\ 2CC\	2e 2G<	.	2ee	blieb	.
!	!	!	!LO:TX:t=P:w źródle brak myślnika rozdzielającego sylaby:problem	!	!
2r	2r	.	4.ddn	ih-	.
.	.	.	8cc	-nen	.
=10	=10	=10	=10	=10	=10
2r	2r	.	(>4b	nur	.
.	.	.	4cc	.	.
4r	4r	.	4g	.	.
4F# 4C	4e	>	4a)	Er-	.
=11	=11	=11	=11	=11	=11
4B 4BB	4g#X 4e	.	4b\	-inn'-	.
4r	4r	.	4a#X	-rung	.
!	!	!	!LO:TX:t=P:w źródle brak myślnika rozdzielającego sylaby:problem	!	!
2r	2r	.	4an	schö-	.
.	.	.	4g#X	-ner	.
=12	=12	=12	=12	=12	=12
4BB	4d#X 4B< 4A<	.	[<2g#X	Ta-	.
4r	4r	.	.	.	.
2r	2r	.	(<4g#]	.	.
.	.	.	4f#)	.	.
*	*clefF4	*	*	*	*
!!LO:LB:g=original
=13	=13	=13	=13	=13	=13
!	!LO:TUP:a	!	!	!	!
!	!LO:TX:t=P:nad triolami ćwierćnutowymi wyświetlają się dodatkowe kwadratowe klamry:problem	!	!	!	!
2EE	(>6B 6G#X	p	4e	-ge.	.
.	6B 6G#	.	.	.	.
.	.	.	4r	.	.
.	6B 6G#)	.	.	.	.
!	!LO:TUP:a	!	!	!	!
4BB	(>6B 6G#\	.	2r	.	.
.	6B 6G#	.	.	.	.
4EE	.	.	.	.	.
.	6B 6G#)	.	.	.	.
=14	=14	=14	=14	=14	=14
!	!LO:TUP:a	!	!	!	!
2BB	(>6B 6G#X	.	1rdd	.	.
.	6B 6G#	.	.	.	.
.	6B 6G#)	.	.	.	.
!	!LO:TUP:a	!	!	!	!
4EE	(>6B 6G#	.	.	.	.
.	6B 6G#	.	.	.	.
4BB	.	.	.	.	.
.	6B 6G#)	.	.	.	.
=15	=15	=15	=15	=15	=15
!	!LO:TUP:a	!	!	!	!
2DD#X	(>6B 6G#X	.	2r	.	.
.	6B 6G#	.	.	.	.
.	6B 6G#)	.	.	.	.
!	!LO:TUP:a	!	!	!	!
4BB	(>6B 6G#	.	4r	.	.
.	6B 6G#	.	.	.	.
4DD#	.	.	4g#X	Schon	.
.	6B 6G#)	.	.	.	.
=16	=16	=16	=16	=16	=16
!	!LO:TUP:a	!	!	!	!
2BB	(>6B 6G#X	.	2.g#X	wink-	.
.	6B 6G#	.	.	.	.
.	6B 6G#)	.	.	.	.
!	!LO:TUP:a	!	!	!	!
4DDn	(>6B 6G#	.	.	.	.
.	6B 6G#	.	.	.	.
!	!	!	!LO:TX:a:t=cres_cen_do.:problem:dynamics with extention lines	!	!
!	!	!	!	!	!LO:HP:a:i:t=cres-cen-do.:ext=ud
4D	.	.	4a#X	-te	<
.	6B 6G#)	.	.	.	.
*	*clefG2	*	*	*	*
=17	=17	=17	=17	=17	=17
2E-X	(>6e-X 6c 6A-X	.	2.ccn	das	.
.	6e- 6c 6A-	.	.	.	.
.	6e- 6c 6A-)	.	.	.	.
4E-	(>6e- 6c 6A-	.	.	.	.
.	6e- 6c 6A-	.	.	.	.
4EE-X	.	.	4dd-X	ver-	.
.	6e- 6c 6A-)	.	.	.	[[
=18	=18	=18	=18	=18	=18
!	!	!	!LO:TX:t=P:w źródle brak myślnika rozdzielającego sylaby:problem	!	!
2E-X	(>6e-X 6d-X 6G<	.	4ffn	-heiss’-	.
.	6e- 6d- 6G<	.	.	.	.
!	!	!	!LO:TX:a:t=di_mi _ nuen_do.:problem:dynamics with line extensions	!	!
!	!	!	!	!	!LO:HP:a:i:t=di-mi-nuen-do.:ext=ud
.	.	.	4ee-X	-ne	>
.	6e- 6d- 6G<)	.	.	.	.
4EE-y	(>6e- 6d- 6G<	.	4dd-X	Land	.
.	6e- 6d- 6G<	.	.	.	.
4E-	.	.	4b-X	auf	.
!	!	!	!	!	!
.	6e- 6d- 6G<)	.	.	.	.
!!LO:PB:g=original
=19	=19	=19	=19	=19	=19
2AA-X	(>6g 6d-X	.	(>2.b-X	Er-	]
.	6g 6d-	.	.	.	.
.	6g 6d-)	.	.	.	.
4E-X	(>6g 6d-	.	.	.	.
.	6g 6d-	.	.	.	.
4AA-	.	.	4cc)	.	.
.	6g 6d-)	.	.	.	.
=20	=20	=20	=20	=20	=20
2AA-X	(>6a-X 6c	.	4a-X	-den,	.
.	6a- 6c	.	.	.	.
.	.	.	4g	das	.
.	6a- 6c)	.	.	.	.
4E-X	(>6a- 6c	.	4a-	e-	.
.	6a- 6c	.	.	.	.
4AA-	.	.	4g	-wig	.
.	6a- 6c)	.	.	.	.
=21	=21	=21	=21	=21	=21
*	*Xtuplet	*	*	*	*
!	!	!	!	!	!LO:HP:a
2DD-X\	6fn 6d-X 6A-X<	.	2fn	ih-	<
.	6f 6d- 6A-<	.	.	.	.
.	6f 6d- 6A-<	.	.	.	.
4AA-X\	6f 6d- 6A-<	.	4g	-rem	.
.	6f 6d- 6A-<	.	.	.	.
4DD-\	.	.	4a-X	Ge-	[
.	6f 6d- 6A-<	.	.	.	.
=22	=22	=22	=22	=22	=22
!	!LO:TX:a:t=P:"crescendo" above:problem	!LO:HP:a	!	!	!
2AA-X\	6f-X 6d-X 6A-X<	<	2b-X\	-schlecht	.
.	6f- 6d- 6A-<	.	.	.	.
.	6f- 6d- 6A-<	.	.	.	.
!	!	!	!	!	!LO:HP:a
4DD-X	6f- 6d- 6A-<	.	4a-X	soll-	<
.	6f- 6d- 6A-<	.	.	.	.
4AA-	.	.	4b-\	-te	[
.	6f- 6d- 6A-<	.	.	.	.
=23	=23	=23	=23	=23	=23
!	!	!LO:HP:a	!LO:TX:a:t=P:diminuendolike accent:problem	!	!
2CC\	6en 6c 6A-X<	>	2.cc^>	wer-	.
.	6e 6c 6G<	.	.	.	.
.	6e 6c 6G<	]	.	.	.
4C\	6e 6c 6G<	.	.	.	.
!	!LO:TX:a:t=dimin _ nu _ endo.:problem:dynamics with line extensions	!	!	!	!
!	!	!LO:HP:a:i:t=dimin-nu-endo.:ext=ud	!	!	!
.	6e 6c 6G<	>	.	.	.
4CC\	.	.	8b-XL	.	.
.	6e 6c 6G<	.	.	.	.
.	.	.	8a-XJ	.	.
!!LO:LB:g=original
=24	=24	=24	=24	=24	=24
2C\	6e 6c 6G<	.	2g	-den.	.
.	6e 6c 6G<	.	.	.	.
.	6e 6c 6G<	.	.	.	.
4CC\	6e 6c 6G<	.	2r	.	.
.	6e 6c 6G<	]	.	.	.
4C\	.	.	.	.	.
.	6e 6c 6G<	.	.	.	.
=25	=25	=25	=25	=25	=25
!	!	!LO:DY:a:rj	!	!	!
4BB 4BBB	4e 4B< 4G<	p	2g	Ihr	.
4r	4r	.	.	.	.
2r	2r	.	4f#X	Glau-	.
.	.	.	4e	-ben,	.
=26	=26	=26	=26	=26	=26
!	!	!	!	!	!LO:HP:a
1rF	1rdd	.	2.b	ach	>
.	.	.	4a	ihr	]
=27	=27	=27	=27	=27	=27
1rF	1rdd	.	4a	Hof-	.
.	.	.	4g	-fen	.
.	.	.	4f#	war	.
.	.	.	4e	ver-	.
=28	=28	=28	=28	=28	=28
!	!	!	!LO:TX:t=P:w źródle brak myślnika rozdzielającego sylaby:problem	!	!
4AA 4AAA\	4e 4c 4F#<	.	2f#	-mes-	.
4r	4r	.	.	.	.
2r	2r	.	4g	-sen;	.
.	.	.	4r	.	.
=29	=29	=29	=29	=29	=29
1rF	1rdd	.	2g	nie	.
!	!	!	!LO:TX:t=P:w źródle brak myślnika rozdzielającego sylaby:problem	!	!
.	.	.	4f#	wer-	.
.	.	.	4e	-den	.
=30	=30	=30	=30	=30	=30
!	!	!	!LO:TX:a:t=P:diminuendolike accent:problem	!	!
2BB 2BBB	2e 2B< 2G<	.	2.b^	sie	.
2r	2r	.	.	.	.
.	.	.	4a	die	.
!!LO:LB:g=original
=31	=31	=31	=31	=31	=31
1rF	1rdd	.	4a	heis-	.
.	.	.	4g	-se	.
!	!	!	!LO:TX:t=P:w źródle brak myślnika rozdzielającego sylaby:problem	!	!
.	.	.	4f#	Sehn-	.
.	.	.	4e	-sucht	.
=32	=32	=32	=32	=32	=32
!	!	!LO:DY:rj	!	!	!LO:DY:a:rj
2.C#X\ 2.CC#X\	2.g 2.e 2.A#X<	sf	2ee	stil-	f>
.	.	.	4e	-len!	]
4r;	4r;	.	4r;	.	.
=33	=33	=33	=33	=33	=33
!	!	!	!	!	!LO:DY:a:rj
1BB 1BBB	1g 1e 1B< 1G<	sf	2b	Sie	ff
!	!	!	!	!	!LO:HP:a
.	.	.	4cc	sol-	>
.	.	.	4b	-len	]
=34	=34	=34	=34	=34	=34
!	!	!	!	!	!LO:HP:a
!	!	!	!LO:TX:t=P:w źródle przecinek przed linią podkreślnikową:problem	!	!
1rF	1rdd	.	(>4gg	ach,_	>
.	.	.	4ff#	.	.
.	.	.	4ee)	.	.
.	.	.	4cc	sie	]
=35	=35	=35	=35	=35	=35
1rF	1rdd	.	(>4b\	sol-	.
.	.	.	4f#	.	.
.	.	.	4g)	.	.
.	.	.	4e	-len	.
=36	=36	=36	=36	=36	=36
!	!	!	!LO:TX:t=P:w źródle brak myślnika rozdzielającego sylaby:problem	!	!
2BB 2BBB	2d#X 2A<	.	4d#X	un-	.
!	!	!	!	!	!LO:HP:a
.	.	.	4cc	-ter-	>
2r	2r	.	4b	-ge-	.
.	.	.	4d#	-hen,	]
=37	=37	=37	=37	=37	=37
!	!	!LO:DY:rj	!	!	!
2BB-X 2BBB-X	2e 2c 2G<	p	1rdd	.	.
2r	2r	.	.	.	.
!!LO:LB:g=original
=38	=38	=38	=38	=38	=38
!	!	!	!LO:TX:t=P:w źródle brak myślników rozdzielających sylaby w "untergehen":problem	!	!
1rF	1rdd	.	4e	un-	>
!	!	!	!	!	!LO:HP:a
.	.	.	4dd	-ter-	.
.	.	.	4cc	-ge-	.
.	.	.	4e	-hen,	]
=39	=39	=39	=39	=39	=39
!LO:TX:a:i:t=legatiss.	!	!	!	!	!
1AA-X 1AAA-X	1fn 1c 1F#<	.	1rdd	.	.
=40	=40	=40	=40	=40	=40
*^	*^	*	*	*	*
1A-X	2DD-X	1f#	2d-X	.	1rdd	.	.
.	2CC	.	2dn	.	.	.	.
*v	*v	*	*	*	*	*	*
*	*v	*v	*	*	*	*
=41	=41	=41	=41	=41	=41
!	!	!	!	!	!LO:HP:a
!	!	!	!LO:TX:t=P:w źródle brak myślnika rozdzielającego sylaby:problem	!	!
2BB 2BBB	2f#X 2d#X 2A<	.	2d#X	sol-	<
2r	2r	.	2cc	-len	[[
=42	=42	=42	=42	=42	=42
!	!	!	!	!	!LO:HP:a
1rF	1rdd	.	2b	sein	>
.	.	.	2d#X	ver-	]]
=43	=43	=43	=43	=43	=43
1rF	1rdd	.	2f#	-ges-	.
.	.	.	4e#X	.	.
.	.	.	4f#	.	.
=44	=44	=44	=44	=44	=44
1rF	1rdd	.	(>4g	.	.
.	.	.	4f#	.	.
.	.	.	4a	.	.
.	.	.	4g	.	.
=45	=45	=45	=45	=45	=45
1BB 1EE	(>8G<L	p	4e)	-sen!	.
.	8B<	.	.	.	.
.	8e 8G<	.	4r	.	.
.	8d#X 8F#<J	.	.	.	.
.	8f# 8A<L	.	2r	.	.
.	8e 8G<	.	.	.	.
.	8a 8c	.	.	.	.
.	8g 8BJ)	.	.	.	.
=46	=46	=46	=46	=46	=46
1BB 1BBB	1f# 1d#X 1B< 1A<	.	1rdd	.	.
=47	=47	=47	=47	=47	=47
!	!	!	!LO:TX:b:t=P:w źródle obie kreski kończące utwór są grube:problem	!	!
1BB 1EE	1e 1B< 1G<	.	1rdd	.	.
==	==	==	==	==	==
*-	*-	*-	*-	*-	*-
!!title: @{OTL}; @{OPS} @{ONM} publisher: @{PPR}
!!!RDF**kern: > = above
!!!RDF**kern: < = below
!!!RDF**dynam: < = "crescendo", 'fontstyle="italic"
!!!RDF**dynam: > = "dim.", 'fontstyle="italic"
!!!RDF**kern: N = linked
!!!ENC: Emilia Ziętek
!!!END: 2020-02-06
!!!EED: Antoni Szymański
!!!EST: 2020-02-10
